synths/sEOS.svg

<svg width="42" height="42" viewBox="0 0 42 42" fill="none" xmlns="http://www.w3.org/2000/svg">
<g clip-path="url(#clip0_7277_57937)">
<mask id="mask0_7277_57937" style="mask-type:alpha" maskUnits="userSpaceOnUse" x="0" y="0" width="42" height="42">
<circle cx="21" cy="21" r="21" transform="matrix(-1 0 0 1 42 0)" fill="url(#paint0_linear_7277_57937)"/>
</mask>
<g mask="url(#mask0_7277_57937)">
<circle cx="21" cy="21" r="21" transform="matrix(-1 0 0 1 42 0)" fill="#34EDB3"/>
<circle cx="18.2" cy="18.2" r="18.2" transform="matrix(-1 0 0 1 39.2 2.80005)" fill="white"/>
</g>
<circle cx="16.1" cy="16.1" r="16.1" transform="matrix(-1 0 0 1 37.1 4.90002)" fill="#0B0B22"/>
<g clip-path="url(#clip1_7277_57937)">
<path d="M21 37.1C29.8918 37.1 37.1 29.8918 37.1 21C37.1 12.1082 29.8918 4.90002 21 4.90002C12.1082 4.90002 4.90002 12.1082 4.90002 21C4.90002 29.8918 12.1082 37.1 21 37.1Z" fill="black"/>
<path fill-rule="evenodd" clip-rule="evenodd" d="M21.003 9.12331C21.1386 9.12221 21.2699 9.18552 21.353 9.29909L26.498 16.3287C26.5333 16.377 26.5581 16.4321 26.5709 16.4905L29.0614 27.8641C29.1002 28.0412 29.0235 28.2235 28.8699 28.3198L21.2345 33.1035C21.1635 33.148 21.0831 33.1697 21.003 33.169C20.923 33.1696 20.8426 33.148 20.7716 33.1035L13.1362 28.3198C12.9826 28.2236 12.9059 28.0412 12.9447 27.8642L15.4342 16.4905C15.4469 16.4321 15.4718 16.377 15.5071 16.3287L20.6531 9.29905C20.7362 9.18551 20.8675 9.12221 21.003 9.12331ZM20.5702 10.866L16.3288 16.6599L17.3879 19.9852L20.5702 14.3701V10.866ZM21.003 15.3478L17.743 21.1001L19.7898 27.5266H22.216L24.2626 21.0993L21.003 15.3478ZM24.8396 22.1174L23.1171 27.5266H27.9052L24.8396 22.1174ZM27.1481 28.3853H22.8437L21.771 31.7541L27.1481 28.3853ZM21.003 31.3359L21.9425 28.3853H20.0633L21.003 31.3359ZM18.8886 27.5266L17.1661 22.1181L14.1009 27.5266H18.8886ZM14.3907 25.2738L16.811 21.0032L15.9305 18.2387L14.3907 25.2738ZM14.858 28.3853H19.1621L20.235 31.7541L14.858 28.3853ZM27.615 25.2731L25.1946 21.0023L26.0747 18.2386L27.615 25.2731ZM25.6763 16.6599L24.6177 19.9843L21.4359 14.3701V10.8662L25.6763 16.6599Z" fill="white"/>
</g>
</g>
<defs>
<linearGradient id="paint0_linear_7277_57937" x1="21" y1="0" x2="21" y2="61.4091" gradientUnits="userSpaceOnUse">
<stop stop-color="#08021E"/>
<stop offset="1" stop-color="#1F0777"/>
</linearGradient>
<clipPath id="clip0_7277_57937">
<rect width="42" height="42" fill="white"/>
</clipPath>
<clipPath id="clip1_7277_57937">
<rect width="32.2" height="32.2" fill="white" transform="translate(4.90002 4.90002)"/>
</clipPath>
</defs>
</svg>

<svg xmlns="http://www.w3.org/2000/svg" width="42" height="42" fill="none"><g clip-path="url(#a)"><mask id="c" width="42" height="42" x="0" y="0" maskUnits="userSpaceOnUse" style="mask-type:alpha"><circle cx="21" cy="21" r="21" fill="url(#b)" transform="matrix(-1 0 0 1 42 0)"/></mask><g mask="url(#c)"><circle cx="21" cy="21" r="21" fill="#34EDB3" transform="matrix(-1 0 0 1 42 0)"/><circle cx="18.2" cy="18.2" r="18.2" fill="#fff" transform="matrix(-1 0 0 1 39.2 2.8)"/></g><circle cx="16.1" cy="16.1" r="16.1" fill="#0B0B22" transform="matrix(-1 0 0 1 37.1 4.9)"/><g clip-path="url(#d)"><path fill="#000" d="M21 37.1c8.892 0 16.1-7.208 16.1-16.1 0-8.892-7.208-16.1-16.1-16.1-8.892 0-16.1 7.208-16.1 16.1 0 8.892 7.208 16.1 16.1 16.1Z"/><path fill="#fff" fill-rule="evenodd" d="M21.003 9.123a.43.43 0 0 1 .35.176l5.145 7.03a.43.43 0 0 1 .073.162l2.49 11.373a.43.43 0 0 1-.191.456l-7.636 4.783a.428.428 0 0 1-.231.066.43.43 0 0 1-.231-.066l-7.636-4.783a.43.43 0 0 1-.191-.456l2.49-11.373a.429.429 0 0 1 .072-.162l5.146-7.03a.43.43 0 0 1 .35-.176Zm-.433 1.743L16.33 16.66l1.059 3.325 3.182-5.615v-3.504Zm.433 4.482-3.26 5.752 2.047 6.427h2.426l2.047-6.428-3.26-5.751Zm3.837 6.77-1.723 5.409h4.788l-3.065-5.41Zm2.308 6.267h-4.304l-1.073 3.37 5.377-3.37Zm-6.145 2.95.94-2.95h-1.88l.94 2.95Zm-2.114-3.808-1.723-5.409-3.065 5.409h4.788Zm-4.498-2.253 2.42-4.27-.88-2.765-1.54 7.035Zm.467 3.111h4.304l1.073 3.37-5.377-3.37Zm12.757-3.112-2.42-4.27.88-2.764 1.54 7.034Zm-1.939-8.613-1.058 3.324-3.182-5.614v-3.504l4.24 5.794Z" clip-rule="evenodd"/></g></g><defs><clipPath id="a"><path fill="#fff" d="M0 0h42v42H0z"/></clipPath><clipPath id="d"><path fill="#fff" d="M4.9 4.9h32.2v32.2H4.9z"/></clipPath><linearGradient id="b" x1="21" x2="21" y1="0" y2="61.409" gradientUnits="userSpaceOnUse"><stop stop-color="#08021E"/><stop offset="1" stop-color="#1F0777"/></linearGradient></defs></svg>
